source/images/bg-home.svg

<svg width="19" height="20" viewBox="0 0 19 20" fill="none" xmlns="http://www.w3.org/2000/svg">
<path d="M17.7772 7.70814L10.8037 1.52302C10.0761 0.825661 8.92391 0.825661 8.19625 1.52302L5.86165 3.64535V2.82673H6.16483C6.34675 2.82673 6.46802 2.70547 6.46802 2.52355V1.31079C6.46802 1.12888 6.34675 1.00761 6.16483 1.00761H2.52656C2.34464 1.00761 2.22338 1.12888 2.22338 1.31079V2.52355C2.22338 2.70547 2.34464 2.82673 2.52656 2.82673H2.82974V6.31343L1.22284 7.70814C1.01062 7.92037 0.949971 8.19324 1.04093 8.46611C1.13189 8.70868 1.40476 8.89059 1.67763 8.89059H2.82978V17.38H2.52656C2.34464 17.38 2.22338 17.5012 2.22338 17.6832V18.8959C2.22338 19.0778 2.34464 19.1991 2.52656 19.1991H16.4734C16.625 19.1991 16.7766 19.0778 16.7766 18.8656V17.6528C16.7766 17.5619 16.7463 17.5012 16.6856 17.4406C16.625 17.3799 16.5644 17.3496 16.4734 17.3496H16.1702V8.86029H17.3224C17.6255 8.86029 17.8681 8.70868 17.9591 8.43581C18.05 8.19324 17.9894 7.89006 17.7772 7.70814ZM17.383 8.25389C17.3527 8.2842 17.3223 8.2842 17.3223 8.2842H15.867C15.6851 8.2842 15.5638 8.40546 15.5638 8.58738V17.6832C15.5638 17.8651 15.6851 17.9863 15.867 17.9863H16.1702V18.5927H2.82974V17.9864H3.13292C3.31484 17.9864 3.4361 17.8651 3.4361 17.6832V8.58741C3.4361 8.4055 3.31484 8.28423 3.13292 8.28423H1.6776C1.64729 8.28423 1.61695 8.28423 1.61695 8.25393C1.61695 8.22362 1.61695 8.19327 1.64725 8.16297L3.34514 6.70764C3.40579 6.64699 3.4361 6.55604 3.4361 6.46508V2.52355C3.4361 2.34164 3.31484 2.22037 3.13292 2.22037H2.82974V1.61397H5.86165V2.22037H5.55847C5.37656 2.22037 5.25529 2.34164 5.25529 2.52355V4.34271C5.25529 4.46397 5.31594 4.58527 5.43721 4.67623C5.55847 4.70654 5.67977 4.70654 5.77073 4.61558L8.62073 2.00811C9.10583 1.52302 9.86383 1.52302 10.3792 2.00811L17.3527 8.19324C17.383 8.19324 17.4133 8.22358 17.383 8.25389Z" fill="#3634E3" stroke="#3634E3" stroke-width="0.2"/>
<path d="M11.3192 9.49685H10.1064V8.2841H11.016C11.1979 8.2841 11.3192 8.16283 11.3192 7.98092C11.3192 7.799 11.1979 7.67773 11.016 7.67773H8.59044C8.40852 7.67773 8.28726 7.799 8.28726 7.98092C8.28726 8.16283 8.40852 8.2841 8.59044 8.2841H9.50002V9.49685H5.55849C5.37658 9.49685 5.25531 9.61812 5.25531 9.80003V11.6192C5.25531 11.8011 5.37658 11.9224 5.55849 11.9224H10.8947C10.9553 11.9224 11.016 11.983 11.016 12.0436V13.7415C11.016 13.9234 11.1372 14.0447 11.3191 14.0447H13.1383C13.3202 14.0447 13.4415 13.9234 13.4415 13.7415V11.6192C13.4415 10.4367 12.5016 9.49685 11.3192 9.49685ZM12.8351 13.4383H11.6224V12.0437C11.6224 11.6495 11.2888 11.316 10.8947 11.316H5.86171V10.1033H11.3192C12.1681 10.1033 12.8351 10.7703 12.8351 11.6192V13.4383H12.8351Z" fill="#3634E3" stroke="#3634E3" stroke-width="0.2"/>
<path d="M12.441 14.7423C12.3197 14.6211 12.1378 14.6211 12.0165 14.7423L11.4101 15.3487C10.9553 15.8035 10.9553 16.5312 11.4101 16.986C11.6223 17.1982 11.9256 17.3195 12.2287 17.3195C12.5319 17.3195 12.8351 17.2285 13.0474 16.986C13.5022 16.5312 13.5022 15.8035 13.0474 15.3487L12.441 14.7423ZM12.6229 16.5615C12.4107 16.7737 12.0469 16.7737 11.8346 16.5615C11.6223 16.3492 11.6224 15.9854 11.8346 15.7732L12.2287 15.379L12.6229 15.7732C12.8351 15.9854 12.8351 16.3492 12.6229 16.5615Z" fill="#3634E3" stroke="#3634E3" stroke-width="0.2"/>
</svg>

<svg width="19" height="20" fill="none" xmlns="http://www.w3.org/2000/svg"><path d="M17.777 7.708l-6.973-6.185a1.886 1.886 0 00-2.608 0L5.862 3.645v-.818h.303c.182 0 .303-.122.303-.303V1.31c0-.182-.121-.303-.303-.303H2.527c-.182 0-.304.12-.304.303v1.213c0 .181.122.303.304.303h.303v3.486L1.223 7.708a.713.713 0 00-.182.758.701.701 0 00.637.425H2.83v8.489h-.303c-.182 0-.304.121-.304.303v1.213c0 .182.122.303.304.303h13.946c.152 0 .304-.121.304-.333v-1.213a.273.273 0 00-.091-.212.275.275 0 00-.213-.091h-.303V8.86h1.152c.303 0 .546-.151.637-.424a.665.665 0 00-.182-.728zm-.394.546c-.03.03-.06.03-.06.03h-1.456c-.182 0-.303.121-.303.303v9.096c0 .182.121.303.303.303h.303v.607H2.83v-.607h.303c.182 0 .303-.12.303-.303V8.587c0-.181-.121-.303-.303-.303H1.678c-.03 0-.061 0-.061-.03s0-.06.03-.091l1.698-1.455a.344.344 0 00.091-.243V2.524c0-.182-.121-.304-.303-.304H2.83v-.606h3.032v.606h-.304c-.181 0-.303.122-.303.304v1.819c0 .121.06.242.182.333.121.03.243.03.334-.06l2.85-2.608c.485-.485 1.243-.485 1.758 0l6.974 6.185c.03 0 .06.03.03.06z" fill="#3634E3" stroke="#3634E3" stroke-width=".2"/><path d="M11.32 9.497h-1.214V8.284h.91c.182 0 .303-.121.303-.303s-.121-.303-.303-.303H8.59c-.181 0-.303.121-.303.303s.122.303.303.303h.91v1.213H5.558c-.181 0-.303.121-.303.303v1.82c0 .181.122.302.303.302h5.337c.06 0 .121.061.121.122v1.697c0 .182.121.304.303.304h1.82a.287.287 0 00.303-.303v-2.123a2.11 2.11 0 00-2.123-2.122zm1.515 3.941h-1.213v-1.394a.738.738 0 00-.727-.728H5.862v-1.213h5.457a1.5 1.5 0 011.516 1.516v1.82h0zm-.394 1.304a.293.293 0 00-.425 0l-.606.607a1.153 1.153 0 00.819 1.97c.303 0 .606-.09.818-.333a1.153 1.153 0 000-1.637l-.606-.607zm.182 1.82a.568.568 0 01-.788 0 .568.568 0 010-.789l.394-.394.394.394a.568.568 0 010 .788z" fill="#3634E3" stroke="#3634E3" stroke-width=".2"/></svg>
